!!!OTL: MEIN LEBENSLAUF IST LIEB UND LUST
!!!ARE: Europa, Mitteleuropa, Deutschland
!!!SCT: B0341
!!!YEM: Copyright 1995, estate of Helmut Schaffrath.
**kern
*ICvox
*Ivox
*M4/4
*k[]
*C:
{4c
=1
4.G
8A
4G
4c
=2
4.G
8A
4G}
{4G
=3
4.F
8E
4F
4G
=4
2E
4r}
{4c
=5
4.c
8B
4A
4B
=6
4.c
8B
4A}
{4d
=7
4.d
8c
4B
4A
=8
2G
4r}
{4G
=9
4B
4B
4d
4d
=10
4B
4B
4G}
{4G
=11
4.F
8E
4F
4G
=12
2E
4r}
{4c
=13
4.c
8B
4A
4B
=14
4.c
8B
4A}
{4d
=15
4B
4G
4A
4B
=16
2c
4r}
{4e
=17
2e
4r
4e
=18
2e
4r}
{4e
=19
4f
4f
4d
4d
=20
4.e
8f
4g}
{4e
=21
2e
4r
4e
=22
2e
4r}
{4e
=23
4f
4f
4d
4d
=24
2c
4r}
==
!!!AGN: Trink - Lied
!!!ONB: ESAC (Essen Associative Code) Database: BOEHME
!!!AMT: simple quadruple
!!!AIN: vox
!!!EED: Helmut Schaffrath
!!!EEV: 1.0
*-
